X: 28416
T: Muliñeira De Santalla D'Ozcos
R: jig
M: 6/8
K: Dmajor
|:dfg a2g|fed f2e|A3 efg|efg a3|
afg a2g|fed f2e|A3 efg|edc d3:|
|:DFA dcd|gce d2A|BcB AGF|EDE G2F|
DFA dcd|gce d2A|dcB A2F|G2E D3:|

